X: 2357
T: Polska efter Snickar Erik
S: efter Snickar-Erik Olsson
O: Emnebo, Ovanåkers socken, Hälsingland
B: EÖ, nr 525
R: Polska
N: Jämför [[Musik/2116|+]] som har vissa liknande drag.
Z: Nils L
M: 3/4
L: 1/16
K: Dm
d4 A2F2 D4 | f4 e2^c2 A4 | a4 g2ag f2gf | e2d2 ^c2a2 A4 |
d4 A2F2 D4 | f4 e2^c2 A4 | a4 g2ag f2gf | ed^ce d8 ::
a6ba (gf)e[fd] | {/e}g6 ag fed^c | d2g2 b2g2 a2f2 | d2f2 e2^c2 A4 |
a6ba gfef | {/e}g6 ag fed^c | d2g2 b2g2 a2f2 | ed^ce d6z2 :|
(:musicend:)
(:music:)
